packages/core/src/svgs/beta.svg

<svg width="24" height="24" viewBox="0 0 24 24" fill="none" xmlns="http://www.w3.org/2000/svg">
<g clip-path="url(#clip0_31_6974)">
<path d="M0 0H24V24H0V0Z" fill="url(#paint0_linear_31_6974)"/>
<path d="M12.0001 19.2858C13.9324 19.2858 15.7855 18.5182 17.1518 17.1518C18.5182 15.7855 19.2858 13.9324 19.2858 12.0001C19.2858 10.0678 18.5182 8.21463 17.1518 6.84829C15.7855 5.48196 13.9324 4.71436 12.0001 4.71436C10.0678 4.71436 8.21463 5.48196 6.84829 6.84829C5.48196 8.21463 4.71436 10.0678 4.71436 12.0001C4.71436 13.9324 5.48196 15.7855 6.84829 17.1518C8.21463 18.5182 10.0678 19.2858 12.0001 19.2858Z" fill="#231F20"/>
<path d="M14.5245 11.6744C14.4387 11.6529 14.3702 11.7515 14.4259 11.8201C14.5673 12.0001 14.6445 12.1929 14.6445 12.3901C14.6445 13.4444 12.5102 14.2972 9.87446 14.2972C9.12017 14.2972 8.40446 14.2287 7.77446 14.1044C7.68874 14.0872 7.64589 14.1901 7.71874 14.2329C8.55446 14.7815 10.063 15.1458 11.7816 15.1458C14.4173 15.1458 16.5516 14.2887 16.5516 13.2387C16.5516 12.5915 15.7502 12.0215 14.5245 11.6744Z" fill="url(#paint1_linear_31_6974)"/>
<path d="M13.7015 8.85004C13.6287 8.82861 13.573 8.91433 13.6201 8.97433C13.7401 9.12861 13.8087 9.29147 13.8087 9.4629C13.8087 10.3629 11.9787 11.0915 9.72438 11.0915C9.08153 11.0915 8.46867 11.0358 7.92438 10.9286C7.85581 10.9158 7.82153 11.0058 7.88153 11.04C8.59724 11.5115 9.88724 11.82 11.3572 11.82C13.6115 11.82 15.4415 11.0915 15.4415 10.1872C15.4415 9.63004 14.7558 9.14576 13.7015 8.85004Z" fill="url(#paint2_linear_31_6974)"/>
</g>
<defs>
<linearGradient id="paint0_linear_31_6974" x1="23.3571" y1="8.14286" x2="2.14286" y2="20.1429" gradientUnits="userSpaceOnUse">
<stop stop-color="#CD9CBC"/>
<stop offset="1" stop-color="#AD8BD4"/>
</linearGradient>
<linearGradient id="paint1_linear_31_6974" x1="7.68446" y1="13.4101" x2="16.5516" y2="13.4101" gradientUnits="userSpaceOnUse">
<stop stop-color="#8077F2"/>
<stop offset="1" stop-color="#FFB29B"/>
</linearGradient>
<linearGradient id="paint2_linear_31_6974" x1="7.85153" y1="10.3329" x2="15.4415" y2="10.3329" gradientUnits="userSpaceOnUse">
<stop stop-color="#8077F2"/>
<stop offset="1" stop-color="#FFB29B"/>
</linearGradient>
<clipPath id="clip0_31_6974">
<rect width="24" height="24" fill="white"/>
</clipPath>
</defs>
</svg>

<svg xmlns="http://www.w3.org/2000/svg" width="24" height="24" fill="none" viewBox="0 0 24 24"><g clip-path="url(#a)"><path fill="url(#b)" d="M0 0h24v24H0z"/><path fill="#231F20" d="M12 19.286a7.285 7.285 0 1 0 0-14.57 7.285 7.285 0 0 0 0 14.57"/><path fill="url(#c)" d="M14.525 11.674c-.086-.021-.155.078-.1.146.142.18.22.373.22.57 0 1.054-2.135 1.907-4.77 1.907-.755 0-1.47-.068-2.1-.193-.086-.017-.13.086-.056.129.835.548 2.344.913 4.063.913 2.635 0 4.77-.857 4.77-1.907 0-.648-.802-1.218-2.027-1.565"/><path fill="url(#d)" d="M13.702 8.85c-.073-.021-.129.064-.082.124.12.155.189.317.189.489 0 .9-1.83 1.629-4.085 1.629a9.4 9.4 0 0 1-1.8-.163c-.068-.013-.102.077-.042.111.715.472 2.005.78 3.475.78 2.255 0 4.085-.729 4.085-1.633 0-.557-.686-1.041-1.74-1.337"/></g><defs><linearGradient id="b" x1="23.357" x2="2.143" y1="8.143" y2="20.143" gradientUnits="userSpaceOnUse"><stop stop-color="#CD9CBC"/><stop offset="1" stop-color="#AD8BD4"/></linearGradient><linearGradient id="c" x1="7.684" x2="16.552" y1="13.41" y2="13.41" gradientUnits="userSpaceOnUse"><stop stop-color="#8077F2"/><stop offset="1" stop-color="#FFB29B"/></linearGradient><linearGradient id="d" x1="7.852" x2="15.441" y1="10.333" y2="10.333" gradientUnits="userSpaceOnUse"><stop stop-color="#8077F2"/><stop offset="1" stop-color="#FFB29B"/></linearGradient><clipPath id="a"><path fill="#fff" d="M0 0h24v24H0z"/></clipPath></defs></svg>
